public/images/case-studies/speakinc/feature4.svg

<svg width="64" height="58" viewBox="0 0 64 58" fill="none" xmlns="http://www.w3.org/2000/svg">
<path d="M24.7601 45.6516H10.1357C9.336 45.6516 8.68774 46.2999 8.68774 47.0996C8.68774 47.8993 9.336 48.5475 10.1357 48.5475H24.7601C25.5599 48.5475 26.2081 47.8993 26.2081 47.0996C26.2081 46.2999 25.5599 45.6516 24.7601 45.6516Z" fill="#FF6B00"/>
<path d="M46.6244 45.6516H32C31.2003 45.6516 30.552 46.2999 30.552 47.0996C30.552 47.8993 31.2003 48.5475 32 48.5475H46.6244C47.424 48.5475 48.0724 47.8993 48.0724 47.0996C48.0724 46.2999 47.424 45.6516 46.6244 45.6516Z" fill="#FF6B00"/>
<path d="M46.6244 9.45239H10.1357C9.336 9.45239 8.68774 10.1006 8.68774 10.9004C8.68774 11.7001 9.336 12.3483 10.1357 12.3483H46.6244C47.424 12.3483 48.0724 11.7001 48.0724 10.9004C48.0724 10.1006 47.424 9.45239 46.6244 9.45239Z" fill="#FF6B00"/>
<path d="M46.6244 16.6921H32C31.2003 16.6921 30.552 17.3404 30.552 18.1401C30.552 18.9398 31.2003 19.5881 32 19.5881H46.6244C47.424 19.5881 48.0724 18.9398 48.0724 18.1401C48.0724 17.3404 47.424 16.6921 46.6244 16.6921Z" fill="#FF6B00"/>
<path d="M46.6244 23.9321H32C31.2003 23.9321 30.552 24.5804 30.552 25.3801C30.552 26.1798 31.2003 26.8281 32 26.8281H46.6244C47.424 26.8281 48.0724 26.1798 48.0724 25.3801C48.0724 24.5804 47.424 23.9321 46.6244 23.9321Z" fill="#FF6B00"/>
<path d="M46.6244 31.1719H32C31.2003 31.1719 30.552 31.8201 30.552 32.6198C30.552 33.4196 31.2003 34.0678 32 34.0678H46.6244C47.424 34.0678 48.0724 33.4196 48.0724 32.6198C48.0724 31.8201 47.424 31.1719 46.6244 31.1719Z" fill="#FF6B00"/>
<path d="M46.6244 38.4116H32C31.2003 38.4116 30.552 39.0599 30.552 39.8596C30.552 40.6593 31.2003 41.3075 32 41.3075H46.6244C47.424 41.3075 48.0724 40.6593 48.0724 39.8596C48.0724 39.0599 47.424 38.4116 46.6244 38.4116Z" fill="#FF6B00"/>
<path d="M24.7601 38.4116H10.1357C9.336 38.4116 8.68774 39.0599 8.68774 39.8596C8.68774 40.6593 9.336 41.3075 10.1357 41.3075H24.7601C25.5599 41.3075 26.2081 40.6593 26.2081 39.8596C26.2081 39.0599 25.5599 38.4116 24.7601 38.4116Z" fill="#FF6B00"/>
<path d="M24.7601 16.6921H10.1357C9.336 16.6921 8.68774 17.3404 8.68774 18.1401V32.7645C8.68774 33.5642 9.336 34.2125 10.1357 34.2125H24.7601C25.5599 34.2125 26.2081 33.5642 26.2081 32.7645V18.1401C26.2081 17.3404 25.5599 16.6921 24.7601 16.6921ZM23.3122 31.3166H11.5837V19.5881H23.3122V31.3166Z" fill="#FF6B00"/>
<path d="M61.1041 8.00447H56.7602V3.66058C56.7602 2.06376 55.4611 0.764648 53.8643 0.764648H2.89593C1.29911 0.764648 0 2.06376 0 3.66058V49.9954C0 53.9875 3.24778 57.2352 7.23982 57.2352H56.7602C60.7522 57.2352 64 53.9875 64 49.9954V10.9004C64 9.30358 62.7009 8.00447 61.1041 8.00447ZM61.1041 49.9954C61.1041 52.3906 59.1554 54.3393 56.7602 54.3393H7.23982C4.8446 54.3393 2.89593 52.3906 2.89593 49.9954V3.66058H53.8643V47.8235C53.8643 49.8195 55.4881 51.4434 57.4842 51.4434C58.2837 51.4434 58.9321 50.7951 58.9321 49.9954C58.9321 49.1957 58.2837 48.5475 57.4842 48.5475C57.085 48.5475 56.7602 48.2227 56.7602 47.8235V10.9004H61.1041V49.9954Z" fill="#7F8284"/>
</svg>

<svg xmlns="http://www.w3.org/2000/svg" width="64" height="58" fill="none" xmlns:v="https://vecta.io/nano"><g fill="#ff6b00"><path d="M24.76 45.652H10.136A1.45 1.45 0 0 0 8.688 47.1a1.45 1.45 0 0 0 1.448 1.448H24.76a1.45 1.45 0 0 0 1.448-1.448 1.45 1.45 0 0 0-1.448-1.448zm21.864 0H32a1.45 1.45 0 0 0-1.448 1.448A1.45 1.45 0 0 0 32 48.548h14.624a1.45 1.45 0 0 0 1.448-1.448 1.45 1.45 0 0 0-1.448-1.448zm0-36.2H10.136A1.45 1.45 0 0 0 8.688 10.9a1.45 1.45 0 0 0 1.448 1.448h36.489a1.45 1.45 0 0 0 1.448-1.448 1.45 1.45 0 0 0-1.448-1.448zm0 7.24H32a1.45 1.45 0 0 0-1.448 1.448A1.45 1.45 0 0 0 32 19.588h14.624a1.45 1.45 0 0 0 1.448-1.448 1.45 1.45 0 0 0-1.448-1.448z"/><path d="M46.624 23.932H32a1.45 1.45 0 0 0-1.448 1.448A1.45 1.45 0 0 0 32 26.828h14.624a1.45 1.45 0 0 0 1.448-1.448 1.45 1.45 0 0 0-1.448-1.448zm0 7.24H32a1.45 1.45 0 0 0-1.448 1.448A1.45 1.45 0 0 0 32 34.068h14.624a1.45 1.45 0 0 0 1.448-1.448 1.45 1.45 0 0 0-1.448-1.448zm0 7.24H32a1.45 1.45 0 0 0-1.448 1.448A1.45 1.45 0 0 0 32 41.308h14.624a1.45 1.45 0 0 0 1.448-1.448 1.45 1.45 0 0 0-1.448-1.448zm-21.864 0H10.136a1.45 1.45 0 0 0-1.448 1.448 1.45 1.45 0 0 0 1.448 1.448H24.76a1.45 1.45 0 0 0 1.448-1.448 1.45 1.45 0 0 0-1.448-1.448z"/><path d="M24.76 16.692H10.136a1.45 1.45 0 0 0-1.448 1.448v14.624a1.45 1.45 0 0 0 1.448 1.448H24.76a1.45 1.45 0 0 0 1.448-1.448V18.14a1.45 1.45 0 0 0-1.448-1.448zm-1.448 14.625H11.584V19.588h11.729v11.729z"/></g><path d="M61.104 8.004H56.76V3.661A2.9 2.9 0 0 0 53.864.765H2.896A2.9 2.9 0 0 0 0 3.661v46.335a7.25 7.25 0 0 0 7.24 7.24h49.52a7.25 7.25 0 0 0 7.24-7.24V10.9a2.9 2.9 0 0 0-2.896-2.896zm0 41.991a4.35 4.35 0 0 1-4.344 4.344H7.24a4.35 4.35 0 0 1-4.344-4.344V3.661h50.968v44.163c0 1.996 1.624 3.62 3.62 3.62a1.45 1.45 0 0 0 1.448-1.448 1.45 1.45 0 0 0-1.448-1.448c-.399 0-.724-.325-.724-.724V10.9h4.344v39.095z" fill="#7f8284"/></svg>
